svgs/sharp-solid/bezier-curve.svg

<svg xmlns="http://www.w3.org/2000/svg" viewBox="0 0 640 512"><!--! Font Awesome Pro 6.6.0 by @fontawesome - https://fontawesome.com License - https://fontawesome.com/license (Commercial License) Copyright 2024 Fonticons, Inc. --><path d="M344 88l0 48-48 0 0-48 48 0zM296 32l-56 0 0 52L121.6 84C111.2 62.7 89.3 48 64 48C28.7 48 0 76.7 0 112s28.7 64 64 64c25.3 0 47.2-14.7 57.6-36l66.9 0c-58.9 39.6-98.9 105-104 180L32 320l0 56 0 48 0 56 56 0 48 0 56 0 0-56 0-48 0-56-51.3 0c5.6-63.8 44.6-118.1 99.3-145.3l0 17.3 56 0 48 0 56 0 0-17.3c54.7 27.2 93.7 81.5 99.3 145.3L448 320l0 56 0 48 0 56 56 0 48 0 56 0 0-56 0-48 0-56-52.5 0c-5-75-45.1-140.4-104-180l66.9 0c10.4 21.3 32.3 36 57.6 36c35.3 0 64-28.7 64-64s-28.7-64-64-64c-25.3 0-47.2 14.7-57.6 36L400 84l0-52-56 0-48 0zM136 376l0 48-48 0 0-48 48 0zm368 0l48 0 0 48-48 0 0-48z"/></svg>

<svg xmlns="http://www.w3.org/2000/svg" viewBox="0 0 640 512"><!--! Font Awesome Pro 6.5.2 by @fontawesome - https://fontawesome.com License - https://fontawesome.com/license (Commercial License) Copyright 2024 Fonticons, Inc. --><path d="M344 88v48H296V88h48zM296 32H240V84H121.6C111.2 62.7 89.3 48 64 48C28.7 48 0 76.7 0 112s28.7 64 64 64c25.3 0 47.2-14.7 57.6-36h66.9c-58.9 39.6-98.9 105-104 180H32v56 48 56H88h48 56V424 376 320H140.7c5.6-63.8 44.6-118.1 99.3-145.3V192h56 48 56V174.7c54.7 27.2 93.7 81.5 99.3 145.3H448v56 48 56h56 48 56V424 376 320H555.5c-5-75-45.1-140.4-104-180h66.9c10.4 21.3 32.3 36 57.6 36c35.3 0 64-28.7 64-64s-28.7-64-64-64c-25.3 0-47.2 14.7-57.6 36H400V32H344 296zM136 376v48H88V376h48zm368 0h48v48H504V376z"/></svg>
